icons/2_Variations/V2EX alt bg.var.svg

<svg width="1024" height="1024" fill="none" xmlns="http://www.w3.org/2000/svg"><g clip-path="url(#a)"><path d="M512 1024c282.77 0 512-229.23 512-512S794.77 0 512 0 0 229.23 0 512s229.23 512 512 512Z" fill="#A0A5AF"/><path d="M588.88 298h-272a18.056 18.056 0 0 0-16.731 11.091A18.056 18.056 0 0 0 298.75 316v124.52h255.08a19.387 19.387 0 0 1 14 6l59.2 62.12a3.578 3.578 0 0 1 0 4.94l-59.2 62.72c-3.65 3.86-7.65 7-13 7H298.76V708a18.052 18.052 0 0 0 5.336 12.756A18.056 18.056 0 0 0 316.89 726h271.94a22.665 22.665 0 0 0 16-6.57l183.7-182.55a36.136 36.136 0 0 0 7.874-39.684 36.15 36.15 0 0 0-7.984-11.766L604.79 304.52a22.68 22.68 0 0 0-15.91-6.52Z" fill="#fff"/></g><defs><clipPath id="a"><path fill="#fff" d="M0 0h1024v1024H0z"/></clipPath></defs></svg>

<svg width="1024" height="1024" viewBox="0 0 1024 1024" fill="none" xmlns="http://www.w3.org/2000/svg">
<g clip-path="url(#clip0_3_311)">
<path d="M512 1024C794.77 1024 1024 794.77 1024 512C1024 229.23 794.77 0 512 0C229.23 0 0 229.23 0 512C0 794.77 229.23 1024 512 1024Z" fill="#A0A5AF"/>
<path d="M588.88 298H316.88C314.507 297.991 312.156 298.449 309.961 299.349C307.766 300.249 305.769 301.572 304.086 303.244C302.402 304.915 301.064 306.902 300.149 309.091C299.233 311.28 298.758 313.628 298.75 316V440.52H553.83C556.448 440.523 559.038 441.056 561.444 442.087C563.85 443.118 566.023 444.626 567.83 446.52L627.03 508.64C627.665 509.306 628.019 510.19 628.019 511.11C628.019 512.03 627.665 512.914 627.03 513.58L567.83 576.3C564.18 580.16 560.18 583.3 554.83 583.3H298.76V708C298.768 710.373 299.243 712.72 300.159 714.909C301.074 717.098 302.412 719.085 304.096 720.756C305.779 722.428 307.776 723.752 309.971 724.651C312.166 725.551 314.517 726.009 316.89 726H588.83C594.822 726.011 600.575 723.649 604.83 719.43L788.53 536.88C791.93 533.511 794.627 529.5 796.464 525.08C798.301 520.66 799.242 515.919 799.232 511.132C799.221 506.346 798.26 501.609 796.404 497.196C794.548 492.784 791.834 488.785 788.42 485.43L604.79 304.52C600.548 300.343 594.834 298.001 588.88 298Z" fill="white"/>
</g>
<defs>
<clipPath id="clip0_3_311">
<rect width="1024" height="1024" fill="white"/>
</clipPath>
</defs>
</svg>
